X:93
T:Indolence and Industry
M:C|
C:© Paul Gitlitz 2008
K:G
"D"DFAd "C"cBAF|"D"DFAd "C"cBAF|"D"DFAd "C"cBAd|"D"e[d2f2]e [d2f2] DD|!
"D"DFAd "C"cBAF|"D"DFAd "C"cBAF|"D"DFAd "C"cBAd|"G"e[d3g3] [d4g4] :|!
|:"Am"ega2 a2eg|abag "D"fed2|"C"efg2 g2ef|"C"gagf "Am"edc2|!
"Am"ega2 a2eg|abag "D"fed2|1"G"gfed cBA2|"C"[E4c4][E4c4]:|2"G"gfed "D"cBA2|"G"[G4B4][G4B4]|]
